heart-sickle.svg

<svg height="128pt" viewBox="0 0 117 128" width="156" xmlns="http://www.w3.org/2000/svg"><path d="m36.1 0h6.85c8.04 1.62 16.02 5.16 21.33 11.62 4.78 5.09 6.9 11.97 7.82 18.75 2.52-.69 5.04-1.4 7.54-2.18 10.11-1.17 20.58 2.13 27.98 9.16 4.95 5.02 8.22 11.6 9.38 18.55v6.5c-1.88 10.43-9.43 19.44-19.15 23.5-9.58 4.63-20.4 4.88-30.65 6.93 6.25 9.75 12.48 19.52 19.04 29.05-3.78 1.98-7.36 4.32-11.23 6.11-2.87-3.04-4.49-6.96-6.8-10.4-5-7.59-9.35-15.57-14.41-23.12-7.71 1.28-15.47 2.77-22.66 5.93-.04.66-.12 1.96-.17 2.61-10.51 4.41-13.86 16.69-22.94 22.85-1.68.03-3.35.06-5.03.12-1.05-1.35-2.08-2.71-3-4.15v-2.31c3.8-11.33 18.4-13.36 22.62-24.46 1.01-.07 2.02-.14 3.03-.2 1.91-2.05 4.23-3.69 7.15-3.61.9-.83 1.79-1.67 2.68-2.5 4.51-.6 9.08-.79 13.55-1.67-3.4-6.28-7.39-12.2-11.1-18.29-4.65 3.07-9.08 6.47-13.85 9.38-3.33-5.34-6.9-10.54-10.11-15.95.48-1.52 2.27-2.1 3.41-3.05 9.34-5.85 18.64-11.77 27.99-17.59 6.9 3.45 13.79 6.91 20.5 10.72-5.85 3.96-12.31 6.88-18.28 10.66 5.21 7.54 9.57 15.68 15.32 22.82 9.29-1.66 18.73-2.9 27.71-5.92 6.47-2.67 12.29-7.48 15.51-13.76 2.73-5.41 2.16-12.01-1.02-17.09-4.83-8.16-13.89-13.33-23.16-14.52-4.76-.66-9.33.84-13.84 2.07-2.42-8.08-6.39-16.14-12.84-21.76-6.25-5.34-15.02-5.87-22.76-4.33-7.81 2.13-14.43 7-20.77 11.85 1.33-6.93 5.79-12.88 11.23-17.2 3.76-3 8.56-4.04 13.13-5.12z" fill="#ea0000"/></svg>

<?xml version="1.0" encoding="UTF-8" ?>
<!DOCTYPE svg PUBLIC "-//W3C//DTD SVG 1.1//EN" "http://www.w3.org/Graphics/SVG/1.1/DTD/svg11.dtd">
<svg width="117pt" height="128pt" viewBox="0 0 117 128" version="1.1" xmlns="http://www.w3.org/2000/svg">
<g id="#ea0000ff">
<path fill="#ea0000" opacity="1.00" d=" M 36.10 0.00 L 42.95 0.00 C 50.99 1.62 58.97 5.16 64.28 11.62 C 69.06 16.71 71.18 23.59 72.10 30.37 C 74.62 29.68 77.14 28.97 79.64 28.19 C 89.75 27.02 100.22 30.32 107.62 37.35 C 112.57 42.37 115.84 48.95 117.00 55.90 L 117.00 62.40 C 115.12 72.83 107.57 81.84 97.85 85.90 C 88.27 90.53 77.45 90.78 67.20 92.83 C 73.45 102.58 79.68 112.35 86.24 121.88 C 82.46 123.86 78.88 126.20 75.01 127.99 C 72.14 124.95 70.52 121.03 68.21 117.59 C 63.21 110.00 58.86 102.02 53.80 94.47 C 46.09 95.75 38.33 97.24 31.14 100.40 C 31.10 101.06 31.02 102.36 30.97 103.01 C 20.46 107.42 17.11 119.70 8.03 125.86 C 6.35 125.89 4.68 125.92 3.00 125.98 C 1.95 124.63 0.92 123.27 0.00 121.83 L 0.00 119.52 C 3.80 108.19 18.40 106.16 22.62 95.06 C 23.63 94.99 24.64 94.92 25.65 94.86 C 27.56 92.81 29.88 91.17 32.80 91.25 C 33.70 90.42 34.59 89.58 35.48 88.75 C 39.99 88.15 44.56 87.96 49.03 87.08 C 45.63 80.80 41.64 74.88 37.93 68.79 C 33.28 71.86 28.85 75.26 24.08 78.17 C 20.75 72.83 17.18 67.63 13.97 62.22 C 14.45 60.70 16.24 60.12 17.38 59.17 C 26.72 53.32 36.02 47.40 45.37 41.58 C 52.27 45.03 59.16 48.49 65.87 52.30 C 60.02 56.26 53.56 59.18 47.59 62.96 C 52.80 70.50 57.16 78.64 62.91 85.78 C 72.20 84.12 81.64 82.88 90.62 79.86 C 97.09 77.19 102.91 72.38 106.13 66.10 C 108.86 60.69 108.29 54.09 105.11 49.01 C 100.28 40.85 91.22 35.68 81.95 34.49 C 77.19 33.83 72.62 35.33 68.11 36.56 C 65.69 28.48 61.72 20.42 55.27 14.80 C 49.02 9.46 40.25 8.93 32.51 10.47 C 24.70 12.60 18.08 17.47 11.74 22.32 C 13.07 15.39 17.53 9.44 22.97 5.12 C 26.73 2.12 31.53 1.08 36.10 0.00 Z" />
</g>
</svg>
